X:1
T: Loch Fyne
C:Carl Volti
R:Reel
Q: 232
K:G
M:4/4
L:1/8
|:d2 BG d2 BG|ef ge dB G2|d2 BG d2 BG|ed cB A2 Bc|
d2 BG d2 BG|ef ge dB G2|ef ge dB GB|AG AB G4|
dg dB G2 GB|AG AB GA Bc|dg dB G2 GB|AG AB G4|
dg dB G2 GB|AG AB GA Bc|dg dB G2 GB|AG AB G4:|
